public/img/pressure.svg

<?xml version="1.0" encoding="UTF-8"?>
<svg xmlns="http://www.w3.org/2000/svg" xmlns:xlink="http://www.w3.org/1999/xlink" width="10pt" height="10pt" viewBox="0 0 10 10" version="1.1">
<g id="surface1">
<path style=" stroke:none;fill-rule:nonzero;fill:rgb(0%,0%,0%);fill-opacity:1;" d="M 9.03125 5.75 C 8.941406 4.671875 8.035156 3.820312 6.9375 3.8125 C 6.949219 3.699219 6.953125 3.589844 6.953125 3.476562 C 6.953125 2.976562 6.847656 2.492188 6.644531 2.039062 C 6.597656 1.941406 6.484375 1.898438 6.386719 1.941406 C 6.285156 1.988281 6.242188 2.105469 6.289062 2.203125 C 6.46875 2.601562 6.5625 3.03125 6.5625 3.476562 C 6.5625 3.597656 6.554688 3.722656 6.539062 3.84375 C 6.398438 3.871094 6.261719 3.910156 6.128906 3.964844 C 6.15625 3.804688 6.171875 3.640625 6.171875 3.476562 C 6.171875 1.992188 4.960938 0.78125 3.476562 0.78125 C 1.992188 0.78125 0.78125 1.992188 0.78125 3.476562 C 0.78125 4.152344 1.03125 4.796875 1.488281 5.296875 C 1.890625 5.734375 2.421875 6.027344 3 6.128906 C 2.984375 6.21875 2.976562 6.3125 2.976562 6.410156 C 2.976562 6.449219 2.976562 6.484375 2.980469 6.523438 C 1.507812 6.28125 0.390625 4.992188 0.390625 3.476562 C 0.390625 1.773438 1.773438 0.390625 3.476562 0.390625 C 4.171875 0.390625 4.832031 0.617188 5.378906 1.046875 C 5.464844 1.113281 5.585938 1.097656 5.652344 1.011719 C 5.71875 0.929688 5.703125 0.804688 5.621094 0.738281 C 5.003906 0.253906 4.261719 0 3.476562 0 C 1.558594 0 0 1.558594 0 3.476562 C 0 4.355469 0.328125 5.195312 0.925781 5.839844 C 1.492188 6.449219 2.242188 6.832031 3.058594 6.929688 C 3.277344 7.578125 3.890625 8.046875 4.613281 8.046875 L 8.84375 8.046875 C 9.480469 8.046875 10 7.527344 10 6.890625 C 10 6.316406 9.578125 5.839844 9.03125 5.75 Z M 1.171875 3.476562 C 1.171875 2.207031 2.207031 1.171875 3.476562 1.171875 C 4.746094 1.171875 5.78125 2.207031 5.78125 3.476562 C 5.78125 3.734375 5.738281 3.988281 5.65625 4.230469 C 5.429688 4.398438 5.242188 4.605469 5.101562 4.847656 C 4.941406 4.796875 4.78125 4.773438 4.613281 4.773438 C 3.945312 4.773438 3.367188 5.175781 3.113281 5.753906 C 2.015625 5.578125 1.171875 4.605469 1.171875 3.476562 Z M 8.84375 7.65625 L 4.613281 7.65625 C 3.925781 7.65625 3.367188 7.097656 3.367188 6.410156 C 3.367188 5.722656 3.925781 5.164062 4.613281 5.164062 C 4.785156 5.164062 4.953125 5.199219 5.113281 5.265625 C 5.425781 5.40625 5.671875 5.671875 5.789062 5.992188 C 5.816406 6.074219 5.890625 6.125 5.972656 6.125 C 5.992188 6.125 6.015625 6.121094 6.039062 6.113281 C 6.140625 6.078125 6.191406 5.964844 6.15625 5.863281 C 6.03125 5.503906 5.78125 5.203125 5.457031 5.007812 C 5.773438 4.507812 6.316406 4.203125 6.921875 4.203125 C 7.8125 4.203125 8.550781 4.882812 8.640625 5.75 C 8.488281 5.777344 8.34375 5.835938 8.214844 5.917969 C 8.125 5.976562 8.097656 6.097656 8.15625 6.1875 C 8.195312 6.246094 8.257812 6.277344 8.320312 6.277344 C 8.359375 6.277344 8.394531 6.265625 8.429688 6.246094 C 8.550781 6.167969 8.695312 6.125 8.84375 6.125 C 9.265625 6.125 9.609375 6.46875 9.609375 6.890625 C 9.609375 7.3125 9.265625 7.65625 8.84375 7.65625 Z M 8.84375 7.65625 "/>
<path style=" stroke:none;fill-rule:nonzero;fill:rgb(0%,0%,0%);fill-opacity:1;" d="M 6.253906 1.449219 C 6.253906 1.558594 6.164062 1.644531 6.058594 1.644531 C 5.949219 1.644531 5.863281 1.558594 5.863281 1.449219 C 5.863281 1.339844 5.949219 1.253906 6.058594 1.253906 C 6.164062 1.253906 6.253906 1.339844 6.253906 1.449219 Z M 6.253906 1.449219 "/>
<path style=" stroke:none;fill-rule:nonzero;fill:rgb(0%,0%,0%);fill-opacity:1;" d="M 3.972656 4.027344 C 4.078125 3.859375 4.09375 3.648438 4.003906 3.464844 L 3.652344 2.722656 C 3.621094 2.652344 3.550781 2.609375 3.476562 2.609375 C 3.402344 2.609375 3.332031 2.652344 3.300781 2.722656 L 2.949219 3.464844 C 2.859375 3.648438 2.875 3.859375 2.980469 4.027344 C 3.089844 4.199219 3.273438 4.300781 3.476562 4.300781 C 3.679688 4.300781 3.863281 4.199219 3.972656 4.027344 Z M 3.3125 3.820312 C 3.277344 3.761719 3.269531 3.695312 3.300781 3.632812 L 3.476562 3.261719 L 3.652344 3.632812 C 3.683594 3.695312 3.675781 3.761719 3.640625 3.820312 C 3.605469 3.878906 3.542969 3.910156 3.476562 3.910156 C 3.410156 3.910156 3.347656 3.878906 3.3125 3.820312 Z M 3.3125 3.820312 "/>
<path style=" stroke:none;fill-rule:nonzero;fill:rgb(0%,0%,0%);fill-opacity:1;" d="M 3.476562 2.148438 C 3.585938 2.148438 3.671875 2.0625 3.671875 1.953125 L 3.671875 1.757812 C 3.671875 1.648438 3.585938 1.5625 3.476562 1.5625 C 3.367188 1.5625 3.28125 1.648438 3.28125 1.757812 L 3.28125 1.953125 C 3.28125 2.0625 3.367188 2.148438 3.476562 2.148438 Z M 3.476562 2.148438 "/>
<path style=" stroke:none;fill-rule:nonzero;fill:rgb(0%,0%,0%);fill-opacity:1;" d="M 2.398438 2.125 C 2.324219 2.046875 2.199219 2.046875 2.125 2.125 C 2.046875 2.199219 2.046875 2.324219 2.125 2.398438 L 2.261719 2.539062 C 2.300781 2.574219 2.347656 2.59375 2.398438 2.59375 C 2.449219 2.59375 2.5 2.574219 2.539062 2.539062 C 2.613281 2.460938 2.613281 2.335938 2.539062 2.261719 Z M 2.398438 2.125 "/>
<path style=" stroke:none;fill-rule:nonzero;fill:rgb(0%,0%,0%);fill-opacity:1;" d="M 2.148438 3.476562 C 2.148438 3.367188 2.0625 3.28125 1.953125 3.28125 L 1.757812 3.28125 C 1.648438 3.28125 1.5625 3.367188 1.5625 3.476562 C 1.5625 3.585938 1.648438 3.671875 1.757812 3.671875 L 1.953125 3.671875 C 2.0625 3.671875 2.148438 3.585938 2.148438 3.476562 Z M 2.148438 3.476562 "/>
<path style=" stroke:none;fill-rule:nonzero;fill:rgb(0%,0%,0%);fill-opacity:1;" d="M 2.261719 4.414062 L 2.125 4.554688 C 2.046875 4.628906 2.046875 4.753906 2.125 4.828125 C 2.160156 4.867188 2.210938 4.886719 2.261719 4.886719 C 2.3125 4.886719 2.359375 4.867188 2.398438 4.828125 L 2.539062 4.691406 C 2.613281 4.617188 2.613281 4.492188 2.539062 4.414062 C 2.460938 4.339844 2.335938 4.339844 2.261719 4.414062 Z M 2.261719 4.414062 "/>
<path style=" stroke:none;fill-rule:nonzero;fill:rgb(0%,0%,0%);fill-opacity:1;" d="M 4.804688 3.476562 C 4.804688 3.585938 4.890625 3.671875 5 3.671875 L 5.195312 3.671875 C 5.304688 3.671875 5.390625 3.585938 5.390625 3.476562 C 5.390625 3.367188 5.304688 3.28125 5.195312 3.28125 L 5 3.28125 C 4.890625 3.28125 4.804688 3.367188 4.804688 3.476562 Z M 4.804688 3.476562 "/>
<path style=" stroke:none;fill-rule:nonzero;fill:rgb(0%,0%,0%);fill-opacity:1;" d="M 4.554688 2.59375 C 4.605469 2.59375 4.652344 2.574219 4.691406 2.539062 L 4.828125 2.398438 C 4.90625 2.324219 4.90625 2.199219 4.828125 2.125 C 4.753906 2.046875 4.628906 2.046875 4.554688 2.125 L 4.414062 2.261719 C 4.339844 2.335938 4.339844 2.460938 4.414062 2.539062 C 4.453125 2.574219 4.503906 2.59375 4.554688 2.59375 Z M 4.554688 2.59375 "/>
<path style=" stroke:none;fill-rule:nonzero;fill:rgb(0%,0%,0%);fill-opacity:1;" d="M 4.898438 8.53125 C 4.863281 8.472656 4.796875 8.4375 4.730469 8.4375 C 4.660156 8.4375 4.597656 8.472656 4.5625 8.53125 L 4.222656 9.101562 C 4.109375 9.285156 4.105469 9.511719 4.214844 9.699219 C 4.320312 9.886719 4.511719 10 4.730469 10 C 4.945312 10 5.140625 9.886719 5.246094 9.699219 C 5.351562 9.511719 5.351562 9.285156 5.238281 9.101562 Z M 4.90625 9.507812 C 4.890625 9.539062 4.835938 9.609375 4.730469 9.609375 C 4.625 9.609375 4.570312 9.539062 4.554688 9.507812 C 4.535156 9.476562 4.5 9.394531 4.554688 9.300781 L 4.730469 9.011719 L 4.902344 9.300781 C 4.960938 9.394531 4.925781 9.476562 4.90625 9.507812 Z M 4.90625 9.507812 "/>
<path style=" stroke:none;fill-rule:nonzero;fill:rgb(0%,0%,0%);fill-opacity:1;" d="M 6.65625 8.53125 C 6.621094 8.472656 6.554688 8.4375 6.488281 8.4375 C 6.417969 8.4375 6.355469 8.472656 6.320312 8.53125 L 5.980469 9.101562 C 5.867188 9.285156 5.863281 9.511719 5.972656 9.699219 C 6.078125 9.886719 6.269531 10 6.488281 10 C 6.703125 10 6.898438 9.886719 7.003906 9.699219 C 7.109375 9.511719 7.109375 9.285156 6.996094 9.101562 Z M 6.664062 9.507812 C 6.648438 9.539062 6.59375 9.609375 6.488281 9.609375 C 6.382812 9.609375 6.328125 9.539062 6.3125 9.507812 C 6.292969 9.476562 6.257812 9.394531 6.3125 9.300781 L 6.488281 9.011719 L 6.660156 9.300781 C 6.714844 9.394531 6.683594 9.476562 6.664062 9.507812 Z M 6.664062 9.507812 "/>
<path style=" stroke:none;fill-rule:nonzero;fill:rgb(0%,0%,0%);fill-opacity:1;" d="M 8.414062 8.53125 C 8.378906 8.472656 8.3125 8.4375 8.246094 8.4375 C 8.175781 8.4375 8.113281 8.472656 8.078125 8.53125 L 7.738281 9.101562 C 7.625 9.285156 7.621094 9.511719 7.730469 9.699219 C 7.835938 9.886719 8.027344 10 8.246094 10 C 8.460938 10 8.65625 9.886719 8.761719 9.699219 C 8.867188 9.511719 8.867188 9.285156 8.753906 9.101562 Z M 8.421875 9.507812 C 8.40625 9.539062 8.351562 9.609375 8.246094 9.609375 C 8.140625 9.609375 8.085938 9.539062 8.070312 9.507812 C 8.050781 9.476562 8.015625 9.394531 8.070312 9.300781 L 8.246094 9.011719 L 8.417969 9.300781 C 8.472656 9.394531 8.441406 9.476562 8.421875 9.507812 Z M 8.421875 9.507812 "/>
</g>
</svg>

<svg xmlns="http://www.w3.org/2000/svg" width="10pt" height="10pt" viewBox="0 0 10 10"><path d="M9.031 5.75a2.12 2.12 0 00-2.094-1.938 3.496 3.496 0 00-.293-1.773.197.197 0 00-.257-.098.195.195 0 00-.098.262 3.083 3.083 0 01.25 1.64 2.15 2.15 0 00-.41.122A2.7 2.7 0 003.477.78 2.7 2.7 0 00.78 3.477 2.688 2.688 0 003 6.129a1.64 1.64 0 00-.02.394A3.103 3.103 0 01.39 3.477a3.087 3.087 0 014.989-2.43c.086.066.207.05.273-.035a.197.197 0 00-.03-.274A3.48 3.48 0 00.926 5.84c.565.61 1.315.992 2.132 1.09a1.642 1.642 0 001.554 1.117h4.23A1.16 1.16 0 0010 6.89c0-.575-.422-1.051-.969-1.141zm-7.86-2.273a2.309 2.309 0 012.306-2.305 2.309 2.309 0 012.18 3.058 2.043 2.043 0 00-.555.618 1.64 1.64 0 00-1.988.906 2.326 2.326 0 01-1.942-2.277zm7.673 4.18h-4.23a1.247 1.247 0 11.5-2.391c.312.14.558.406.675.726a.192.192 0 00.25.121.196.196 0 00.117-.25 1.625 1.625 0 00-.699-.855 1.731 1.731 0 013.184.742 1.185 1.185 0 00-.426.168.196.196 0 10.215.328.766.766 0 11.414 1.41zm0 0"/><path d="M6.254 1.45c0 .109-.09.195-.195.195a.193.193 0 01-.196-.196.196.196 0 01.39 0zM3.973 4.027a.577.577 0 00.03-.562l-.35-.742a.192.192 0 00-.352 0l-.352.742a.583.583 0 00.527.836.583.583 0 00.497-.274zm-.66-.207a.19.19 0 01-.012-.187l.176-.371.175.37a.19.19 0 01-.011.188.188.188 0 01-.164.09.188.188 0 01-.164-.09zm.164-1.672a.193.193 0 00.195-.195v-.195a.193.193 0 00-.195-.196.193.193 0 00-.196.196v.195c0 .11.086.195.196.195zm-1.079-.023a.189.189 0 00-.273 0 .189.189 0 000 .273l.137.141a.202.202 0 00.277 0 .2.2 0 000-.277zm-.25 1.352a.193.193 0 00-.195-.196h-.195a.193.193 0 00-.196.196c0 .109.086.195.196.195h.195c.11 0 .195-.086.195-.195zm.114.937l-.137.14a.189.189 0 000 .274.19.19 0 00.273 0l.141-.137a.2.2 0 000-.277.2.2 0 00-.277 0zm2.543-.937c0 .109.086.195.195.195h.195c.11 0 .196-.086.196-.195a.193.193 0 00-.196-.196H5a.193.193 0 00-.195.196zm-.25-.883c.05 0 .097-.02.136-.055l.137-.14a.189.189 0 000-.274.189.189 0 00-.273 0l-.14.137a.2.2 0 000 .277.209.209 0 00.14.055zm.343 5.937a.198.198 0 00-.335 0l-.34.57a.577.577 0 00-.008.598.582.582 0 00.515.301.59.59 0 00.516-.3.585.585 0 00-.008-.598zm.008.977a.196.196 0 01-.176.101.196.196 0 01-.175-.101.198.198 0 010-.207l.175-.29.172.29a.192.192 0 01.004.207zm1.75-.977a.198.198 0 00-.336 0l-.34.57a.577.577 0 00-.007.598.582.582 0 00.515.301.59.59 0 00.516-.3.585.585 0 00-.008-.598zm.008.977a.196.196 0 01-.176.101.196.196 0 01-.176-.101.198.198 0 010-.207l.176-.29.172.29a.2.2 0 01.004.207zm1.75-.977a.198.198 0 00-.336 0l-.34.57a.577.577 0 00-.008.598.583.583 0 00.516.301.59.59 0 00.516-.3.585.585 0 00-.008-.598zm.008.977a.196.196 0 01-.176.101.196.196 0 01-.176-.101.198.198 0 010-.207l.176-.29.172.29a.2.2 0 01.004.207zm0 0"/></svg>
